X: 114203
Q: "Strathspey."
M: C
L: 1/8
K: C
uf |\
ve<ug vg>ua vg>ve (c<a) | vg<c a>c ve<d d>f |\
e<g g>a g>a g<e | f<d B<g e<c c ::\
uc |\
vG>vcuE>uc  d>cd>e |
vc<c e>d vc<A A>c |\
[1 G>cE>c d>cd>e | c>G A/B/c/G/ E<C C :|\


